src/pos-icons/arrow-down.svg

<svg height="24" viewBox="0 0 24 24" width="24" xmlns="http://www.w3.org/2000/svg"><path d="m11 4h2v12l5.5-5.5 1.42 1.42-7.92 7.92-7.92-7.92 1.42-1.42 5.5 5.5z"/></svg>

<?xml version="1.0" encoding="UTF-8"?><!DOCTYPE svg PUBLIC "-//W3C//DTD SVG 1.1//EN" "http://www.w3.org/Graphics/SVG/1.1/DTD/svg11.dtd"><svg xmlns="http://www.w3.org/2000/svg" xmlns:xlink="http://www.w3.org/1999/xlink" version="1.1" id="mdi-arrow-down" width="24" height="24" viewBox="0 0 24 24"><path d="M11,4H13V16L18.5,10.5L19.92,11.92L12,19.84L4.08,11.92L5.5,10.5L11,16V4Z" /></svg>
